Adwaita++-Light/panel/16/feedindicator-attention.svg

<svg height="16" width="16" xmlns="http://www.w3.org/2000/svg">
  <path d="m8 1a7 7 0 0 0 -7 7 7 7 0 0 0 7 7 7 7 0 0 0 7-7h-2a5 5 0 0 1 -5 5 5 5 0 0 1 -5-5 5 5 0 0 1 5-5zm0 3a4 4 0 0 0 -4 4 4 4 0 0 0 4 4 4 4 0 0 0 4-4h-2a2 2 0 0 1 -2 2 2 2 0 0 1 -2-2 2 2 0 0 1 2-2z" fill="#444" opacity=".3"/>
  <circle cx="8" cy="8" fill="#4285f4" r="1"/>
  <path d="m8 1v2a5 5 0 0 1 5 5h2a7 7 0 0 0 -7-7zm0 3v2a2 2 0 0 1 2 2h2a4 4 0 0 0 -4-4z" fill="#444"/>
</svg>

<svg xmlns="http://www.w3.org/2000/svg" width="16" height="16" version="1.1">
 <defs>
  <style id="current-color-scheme" type="text/css">
   .ColorScheme-Text { color:#444444; } .ColorScheme-Highlight { color:#4285f4; }
  </style>
 </defs>
 <path style="fill:currentColor;opacity:0.3" class="ColorScheme-Text" d="M 8 1 A 7 7 0 0 0 1 8 A 7 7 0 0 0 8 15 A 7 7 0 0 0 15 8 L 13 8 A 5 5 0 0 1 8 13 A 5 5 0 0 1 3 8 A 5 5 0 0 1 8 3 L 8 1 z M 8 4 A 4 4 0 0 0 4 8 A 4 4 0 0 0 8 12 A 4 4 0 0 0 12 8 L 10 8 A 2 2 0 0 1 8 10 A 2 2 0 0 1 6 8 A 2 2 0 0 1 8 6 L 8 4 z"/>
 <circle style="fill:currentColor;opacity:1" class="ColorScheme-Highlight" cx="8" cy="8" r="1"/>
 <path style="fill:currentColor;opacity:1" class="ColorScheme-Text" d="M 8 1 L 8 3 A 5 5 0 0 1 13 8 L 15 8 A 7 7 0 0 0 8 1 z M 8 4 L 8 6 A 2 2 0 0 1 10 8 L 12 8 A 4 4 0 0 0 8 4 z"/>
</svg>
